gr/monitor.svg

<svg xmlns="http://www.w3.org/2000/svg" viewBox="0 0 24 24" height="1em" width="1em">
  <path fill="none" stroke="#000" stroke-width="2" d="M1 16h22V2H1v14Zm4 6h14H5Zm4 0h6v-6H9v6Z"/>
</svg>

<svg xmlns="http://www.w3.org/2000/svg" viewBox="0 0 24 24" height="1em" width="1em">
  <path fill="none" stroke="#000" stroke-width="2" d="M1,16 L23,16 L23,2 L1,2 L1,16 Z M5,22 L19,22 L5,22 Z M9,22 L15,22 L15,16 L9,16 L9,22 Z"/>
</svg>
